X:1
T:Give It Now
T:Give It Now
T:Getrude M. Hoad
T:Getrude M. Hoad, 1900
T:Public Domain Courtesy of the Cyber Hymnal™
C:Getrude M. Hoad
Z:Public Domain
Z:Courtesy of the Cyber Hymnal™
%%score ( 1 2 ) ( 3 4 )
L:1/8
Q:1/4=95
M:4/4
K:Eb
V:1 treble 
V:2 treble 
V:3 bass 
V:4 bass 
V:1
 E[DF] | [EG][Ge][Ad][Ac] [GB][EG]E[DF] | [EG]6 E[DF] | [EG][Ge][Gd][Gc] [Fd][Fd][Ec][Ec] | %4
w: 1.~Give thy|life in youth to Je- sus, Give it|now! While life’s|sun is bright- ly shin- ing On thy|
w: 2.~Wait not|till the sha- dows length- en O’er the|plain, And the|world’s al- lure- ments strength- en, To thy|
w: 3.~Fill with|bless- ing un- to o- thers All thy|days, And by|aid- ing fall- en bro- thers Give God|
 [DB]6 [B,D][CE] | [DF][DF]E[DF] [EG][EB][EG]E | [DF][DF]E[DF] [EG][EB][EG][FA] | %7
w: brow; Come, and|on His truth re- ly- ing, All His|love and grace des- cry- ing, At the|
w: pain; Seek not|wealth, an i- dle sto- ry, Seek not|fame, its paths are go- ry, Seek the|
w: praise. Heav’n shall|come, its joys un- end- ing, With thy|earth- life sweet- ly blend- ing, And an-|
 [GB][Ge][Bd][Ac] [GB][EG][DF][DG] | E6 B,2 |] %9
w: cross where Christ hangs dy- ing Hum- bly|bow. *|
w: Lord; with Him in glo- ry Thou shalt|reign. *|
w: gel- ic hosts des- cend- ing Guard thy|ways. *|
V:2
 E x | x6 E x | x6 E x | x8 | x8 | x2 E x3 E x | x2 E x5 | x8 | E2 CC x4 |] %9
V:3
 [E,G,][E,A,] | [E,B,][E,B,][E,C][E,D] [E,E][E,B,][E,G,][E,A,] | %2
 ([E,B,]2 [E,B,][E,B,] [E,B,]2) [E,G,][E,A,] | [E,B,][E,B,][E,B,][E,B,] [F,B,][F,B,][F,=A,]F, | %4
 ([B,,F,]2 [B,,F,][B,,F,] [B,,F,]2) [B,,F,][B,,F,] | %5
 [B,,B,][B,,A,][B,,G,][B,,B,] [E,B,][E,G,][E,B,][E,G,] | %6
 [B,,B,][B,,A,][B,,F,][B,,B,] [E,B,][E,G,][E,B,][E,B,] | %7
 [E,E][E,E][A,E][A,E] [E,E][E,B,][B,,A,][B,,B,] | ([E,G,]2 [A,,A,][A,,A,] [E,G,]2) x2 |] %9
V:4
 x2 | x8 | x8 | x7 F, | x8 | x8 | x8 | x8 | x8 |] %9

